X:1345
T: Laune Rangers
S: "The Roche Collection of Traditional Irish Music" [I/72/187]
L: 1/8
M: 4/4
R: reel
K: Dm
A2 AG Addc | A2 AG EccG | A2 AG Addc |1 AcGA EDEG :|2 AcGE ED D2 ||
ed (3ddd ec (3ccc | ed (3ddd abag | ed (3ddd edcA | GAcd e2 d2 |
ed (3ddd ec (3ccc | ed (3ddd abag | egde cdcA | GAcd e2 dc |]
